svgs/sharp-regular/address-card.svg

<svg xmlns="http://www.w3.org/2000/svg" viewBox="0 0 576 512"><!--! Font Awesome Pro 6.6.0 by @fontawesome - https://fontawesome.com License - https://fontawesome.com/license (Commercial License) Copyright 2024 Fonticons, Inc. --><path d="M528 80l0 352L48 432 48 80l480 0zM48 32L0 32 0 80 0 432l0 48 48 0 480 0 48 0 0-48 0-352 0-48-48 0L48 32zM208 256a64 64 0 1 0 0-128 64 64 0 1 0 0 128zM96 384l224 0-32-96-160 0L96 384zM376 144l-24 0 0 48 24 0 80 0 24 0 0-48-24 0-80 0zm0 96l-24 0 0 48 24 0 80 0 24 0 0-48-24 0-80 0z"/></svg>

<svg xmlns="http://www.w3.org/2000/svg" viewBox="0 0 576 512"><!--! Font Awesome Pro 6.5.2 by @fontawesome - https://fontawesome.com License - https://fontawesome.com/license (Commercial License) Copyright 2024 Fonticons, Inc. --><path d="M528 80V432H48V80H528zM48 32H0V80 432v48H48 528h48V432 80 32H528 48zM208 256a64 64 0 1 0 0-128 64 64 0 1 0 0 128zM96 384H320l-32-96H128L96 384zM376 144H352v48h24 80 24V144H456 376zm0 96H352v48h24 80 24V240H456 376z"/></svg>
